X: 549
T:My Former Wife
R:jig
M:6/8
Z:Pat Higgins
N:abc tidied Steve Mansfield
N:Posted to the woodenflute mailing list, July 2002
K:C/Am
AB|c2A Bcd|ecA AGE|G3 AGA|B3 GAB|c2A Bcd|ecA AGE|
G3 AGE|GED D3:| g3 efg|age edB|g3 efg|age e2f|
g3 efg|age edB|c2A Bed|BAG A(3Bcd| g2g efg|age edB|
g3 efg|age ega|bag age|gfg edB|c2A Bed|BAG A3||

